X: 25202
T: Malcolm Finlay
R: reel
M: 4/4
K: Emajor
c|B~G3 Bebg|~f3 e gfec|B~G3 Bebg|fefg e3 c|
B~G3 Bebg|~f3 e gfec|B~G3 Bebg|fefg e3 f||
gebe gebe|fege c2 ef|(3gfe be gebe|fefg e2 ef|
gebe gebe|fege c3 c|B~G3 Bebg|fefg e3||

